dist/assets/img/icons/logo.svg

<svg width="188" height="54" viewBox="0 0 188 54" fill="none" xmlns="http://www.w3.org/2000/svg">
<path d="M41.3373 7.2041V17V29.6531V40.9184L40.9329 41.0816L23.5404 48.1837L6.06713 41L5.66265 40.8368V29.6531V17V7.2041L0 9.48982V16.9184V29.5714V38.4694V42.1429V42.8776C0 43.9388 0.64716 44.8368 1.53701 45.2449L22.5697 53.8163C23.136 54.0612 23.864 54.0612 24.4303 53.8163L45.463 45.2449C46.4337 44.8368 47 43.9388 47 42.8776V42.1429V38.4694V29.6531V17V9.57145L41.3373 7.2041Z" fill="#8095F2"/>
<path d="M41.3373 7.2041V17V29.6531V40.9184L40.9329 41.0816L23.5404 48.1837L6.06713 41L5.66265 40.8368V29.6531V17V7.2041L0 9.48982V16.9184V29.5714V38.4694V42.1429V42.8776C0 43.9388 0.64716 44.8368 1.53701 45.2449L22.5697 53.8163C23.136 54.0612 23.864 54.0612 24.4303 53.8163L45.463 45.2449C46.4337 44.8368 47 43.9388 47 42.8776V42.1429V38.4694V29.6531V17V9.57145L41.3373 7.2041Z" fill="#8095F2"/>
<path d="M37.7177 25.7347V36.8367C37.7177 37.8163 37.1515 38.7959 36.1807 39.2857L24.2892 44.102C23.7229 44.3469 22.9948 44.3469 22.4286 44.102L10.537 39.2041C9.64716 38.7959 9 37.898 9 36.8367V34.6327V18.6327V7.53061C9 6.46939 9.56627 5.57143 10.537 5.16326L22.4286 0.183673C22.9948 -0.0612245 23.7229 -0.0612245 24.2892 0.183673L36.1807 5.08163C37.0706 5.48979 37.7177 6.38775 37.7177 7.44898V17.898L32.0551 15.9388V9.65306L23.3184 6.06122L14.5818 9.65306L14.6627 32.3469V34.7143L23.3993 38.3061L32.136 34.7143V28.1837C32.136 27.5949 31.8589 27 30.8589 26.5L24.5 23L27 18.5L36.0998 23.5306C37.0706 23.8571 37.7177 24.7551 37.7177 25.7347Z" fill="#8095F2"/>
<path d="M37.7177 25.7347V36.8367C37.7177 37.8163 37.1515 38.7959 36.1807 39.2857L24.2892 44.102C23.7229 44.3469 22.9948 44.3469 22.4286 44.102L10.537 39.2041C9.64716 38.7959 9 37.898 9 36.8367V34.6327V18.6327V7.53061C9 6.46939 9.56627 5.57143 10.537 5.16326L22.4286 0.183673C22.9948 -0.0612245 23.7229 -0.0612245 24.2892 0.183673L36.1807 5.08163C37.0706 5.48979 37.7177 6.38775 37.7177 7.44898V17.898L32.0551 15.9388V9.65306L23.3184 6.06122L14.5818 9.65306L14.6627 32.3469V34.7143L23.3993 38.3061L32.136 34.7143V28.1837C32.136 27.5949 31.8589 27 30.8589 26.5L24.5 23L27 18.5L36.0998 23.5306C37.0706 23.8571 37.7177 24.7551 37.7177 25.7347Z" fill="#8095F2"/>
<path d="M74.03 25.286C73.0033 25.286 72.072 25.154 71.236 24.89C70.4147 24.6113 69.7107 24.208 69.124 23.68C68.552 23.1373 68.1047 22.4627 67.782 21.656C67.474 20.8493 67.32 19.9107 67.32 18.84V9.6H71.28V18.378C71.28 19.566 71.4853 20.468 71.896 21.084C72.3067 21.6853 73.018 21.986 74.03 21.986C75.0713 21.986 75.79 21.6853 76.186 21.084C76.582 20.468 76.78 19.5733 76.78 18.4V9.6H80.74V18.84C80.74 19.9107 80.586 20.8493 80.278 21.656C79.97 22.4627 79.5227 23.1373 78.936 23.68C78.364 24.208 77.66 24.6113 76.824 24.89C76.0027 25.154 75.0713 25.286 74.03 25.286ZM85.8103 9.6H92.5203C94.4416 9.6 95.8936 10.062 96.8763 10.986C97.859 11.91 98.3503 13.164 98.3503 14.748C98.3503 15.848 98.0863 16.794 97.5583 17.586C97.045 18.3633 96.2676 18.9353 95.2263 19.302L98.7903 25H94.3903L91.3983 19.72H89.7703V25H85.8103V9.6ZM91.6403 16.64C92.6963 16.64 93.415 16.486 93.7963 16.178C94.1923 15.8553 94.3903 15.3787 94.3903 14.748C94.3903 14.1173 94.1923 13.648 93.7963 13.34C93.415 13.0173 92.6963 12.856 91.6403 12.856H89.7703V16.64H91.6403ZM110.237 25.286C109.225 25.286 108.265 25.1393 107.355 24.846C106.446 24.5527 105.647 24.0907 104.957 23.46C104.283 22.8147 103.747 22.0007 103.351 21.018C102.955 20.0207 102.757 18.818 102.757 17.41V16.97C102.757 15.6207 102.955 14.462 103.351 13.494C103.747 12.526 104.283 11.734 104.957 11.118C105.647 10.502 106.446 10.0473 107.355 9.754C108.265 9.46067 109.225 9.314 110.237 9.314C111.249 9.314 112.21 9.46067 113.119 9.754C114.029 10.0473 114.821 10.502 115.495 11.118C116.185 11.734 116.727 12.526 117.123 13.494C117.519 14.462 117.717 15.6207 117.717 16.97V17.41C117.717 18.818 117.519 20.0207 117.123 21.018C116.727 22.0007 116.185 22.8147 115.495 23.46C114.821 24.0907 114.029 24.5527 113.119 24.846C112.21 25.1393 111.249 25.286 110.237 25.286ZM110.237 21.986C110.677 21.986 111.103 21.92 111.513 21.788C111.924 21.6413 112.283 21.3993 112.591 21.062C112.899 20.71 113.149 20.2407 113.339 19.654C113.53 19.0673 113.625 18.3193 113.625 17.41V16.97C113.625 16.1193 113.53 15.4153 113.339 14.858C113.149 14.286 112.899 13.8387 112.591 13.516C112.283 13.1787 111.924 12.944 111.513 12.812C111.103 12.68 110.677 12.614 110.237 12.614C109.797 12.614 109.372 12.68 108.961 12.812C108.551 12.944 108.191 13.1787 107.883 13.516C107.575 13.8387 107.326 14.286 107.135 14.858C106.945 15.4153 106.849 16.1193 106.849 16.97V17.41C106.849 18.3193 106.945 19.0673 107.135 19.654C107.326 20.2407 107.575 20.71 107.883 21.062C108.191 21.3993 108.551 21.6413 108.961 21.788C109.372 21.92 109.797 21.986 110.237 21.986ZM122.437 9.6H126.397V21.744H132.997V25H122.437V9.6ZM143.899 25.286C142.887 25.286 141.926 25.1393 141.017 24.846C140.108 24.5527 139.308 24.0907 138.619 23.46C137.944 22.8147 137.409 22.0007 137.013 21.018C136.617 20.0207 136.419 18.818 136.419 17.41V16.97C136.419 15.6207 136.617 14.462 137.013 13.494C137.409 12.526 137.944 11.734 138.619 11.118C139.308 10.502 140.108 10.0473 141.017 9.754C141.926 9.46067 142.887 9.314 143.899 9.314C144.911 9.314 145.872 9.46067 146.781 9.754C147.69 10.0473 148.482 10.502 149.157 11.118C149.846 11.734 150.389 12.526 150.785 13.494C151.181 14.462 151.379 15.6207 151.379 16.97V17.41C151.379 18.818 151.181 20.0207 150.785 21.018C150.389 22.0007 149.846 22.8147 149.157 23.46C148.482 24.0907 147.69 24.5527 146.781 24.846C145.872 25.1393 144.911 25.286 143.899 25.286ZM143.899 21.986C144.339 21.986 144.764 21.92 145.175 21.788C145.586 21.6413 145.945 21.3993 146.253 21.062C146.561 20.71 146.81 20.2407 147.001 19.654C147.192 19.0673 147.287 18.3193 147.287 17.41V16.97C147.287 16.1193 147.192 15.4153 147.001 14.858C146.81 14.286 146.561 13.8387 146.253 13.516C145.945 13.1787 145.586 12.944 145.175 12.812C144.764 12.68 144.339 12.614 143.899 12.614C143.459 12.614 143.034 12.68 142.623 12.812C142.212 12.944 141.853 13.1787 141.545 13.516C141.237 13.8387 140.988 14.286 140.797 14.858C140.606 15.4153 140.511 16.1193 140.511 16.97V17.41C140.511 18.3193 140.606 19.0673 140.797 19.654C140.988 20.2407 141.237 20.71 141.545 21.062C141.853 21.3993 142.212 21.6413 142.623 21.788C143.034 21.92 143.459 21.986 143.899 21.986ZM162.919 25.286C161.863 25.286 160.887 25.1393 159.993 24.846C159.098 24.5527 158.321 24.0907 157.661 23.46C157.001 22.8147 156.48 21.9933 156.099 20.996C155.732 19.9987 155.549 18.8033 155.549 17.41V16.97C155.549 15.6353 155.739 14.4913 156.121 13.538C156.502 12.57 157.023 11.778 157.683 11.162C158.343 10.5313 159.113 10.0693 159.993 9.776C160.873 9.468 161.811 9.314 162.809 9.314C163.689 9.314 164.51 9.41667 165.273 9.622C166.035 9.82733 166.71 10.15 167.297 10.59C167.883 11.0153 168.367 11.5653 168.749 12.24C169.145 12.9147 169.401 13.7213 169.519 14.66H165.427C165.324 14.2493 165.177 13.912 164.987 13.648C164.796 13.384 164.583 13.1787 164.349 13.032C164.114 12.8707 163.865 12.7607 163.601 12.702C163.337 12.6433 163.073 12.614 162.809 12.614C162.339 12.614 161.907 12.6873 161.511 12.834C161.129 12.9807 160.799 13.2227 160.521 13.56C160.242 13.8973 160.022 14.3447 159.861 14.902C159.714 15.4593 159.641 16.1487 159.641 16.97V17.41C159.641 18.2313 159.721 18.9353 159.883 19.522C160.044 20.094 160.264 20.5633 160.543 20.93C160.836 21.2967 161.181 21.568 161.577 21.744C161.987 21.9053 162.435 21.986 162.919 21.986C163.315 21.986 163.703 21.9347 164.085 21.832C164.481 21.7293 164.825 21.568 165.119 21.348C165.427 21.128 165.676 20.8567 165.867 20.534C166.057 20.1967 166.16 19.7933 166.175 19.324H163.359V16.816H169.849V17.85C169.849 19.17 169.673 20.2993 169.321 21.238C168.983 22.1767 168.507 22.9467 167.891 23.548C167.275 24.1493 166.541 24.5893 165.691 24.868C164.855 25.1467 163.931 25.286 162.919 25.286ZM178.447 19.236L172.727 9.6H177.303L180.515 15.32L183.551 9.6H187.687L182.407 19.236V25H178.447V19.236Z" fill="#181A36"/>
<path d="M72.57 47.18C71.826 47.18 71.118 47.06 70.446 46.82C69.786 46.568 69.204 46.184 68.7 45.668C68.208 45.14 67.812 44.474 67.512 43.67C67.224 42.866 67.08 41.906 67.08 40.79V40.43C67.08 39.35 67.224 38.42 67.512 37.64C67.812 36.86 68.208 36.218 68.7 35.714C69.204 35.21 69.786 34.838 70.446 34.598C71.118 34.346 71.826 34.22 72.57 34.22C73.182 34.22 73.752 34.31 74.28 34.49C74.808 34.658 75.282 34.904 75.702 35.228C76.122 35.552 76.476 35.948 76.764 36.416C77.064 36.884 77.286 37.412 77.43 38H75.63C75.366 37.208 74.952 36.632 74.388 36.272C73.824 35.912 73.218 35.732 72.57 35.732C72.078 35.732 71.61 35.816 71.166 35.984C70.722 36.152 70.326 36.422 69.978 36.794C69.642 37.154 69.372 37.634 69.168 38.234C68.976 38.834 68.88 39.566 68.88 40.43V40.79C68.88 41.702 68.988 42.47 69.204 43.094C69.42 43.706 69.702 44.204 70.05 44.588C70.41 44.972 70.806 45.248 71.238 45.416C71.682 45.584 72.126 45.668 72.57 45.668C73.566 45.668 74.376 45.386 75 44.822C75.624 44.258 75.984 43.334 76.08 42.05H72.93V40.61H77.7V41.15C77.7 42.122 77.58 42.986 77.34 43.742C77.1 44.486 76.758 45.116 76.314 45.632C75.882 46.136 75.348 46.52 74.712 46.784C74.076 47.048 73.362 47.18 72.57 47.18ZM84.6314 34.4H89.0414C89.8334 34.4 90.5234 34.496 91.1114 34.688C91.7114 34.88 92.2094 35.144 92.6054 35.48C93.0014 35.816 93.3014 36.218 93.5054 36.686C93.7094 37.142 93.8114 37.64 93.8114 38.18C93.8114 39.02 93.5594 39.758 93.0554 40.394C92.5634 41.018 91.8314 41.456 90.8594 41.708L94.1714 47H92.1734L89.1674 41.924H86.3234V47H84.6314V34.4ZM88.8614 40.484C90.0254 40.484 90.8594 40.274 91.3634 39.854C91.8674 39.422 92.1194 38.864 92.1194 38.18C92.1194 37.496 91.8674 36.944 91.3634 36.524C90.8594 36.092 90.0254 35.876 88.8614 35.876H86.3234V40.484H88.8614ZM105.866 47.18C105.146 47.18 104.45 47.06 103.778 46.82C103.106 46.568 102.512 46.184 101.996 45.668C101.48 45.152 101.066 44.492 100.754 43.688C100.442 42.884 100.286 41.918 100.286 40.79V40.43C100.286 39.35 100.442 38.42 100.754 37.64C101.066 36.86 101.48 36.218 101.996 35.714C102.512 35.198 103.106 34.82 103.778 34.58C104.45 34.34 105.146 34.22 105.866 34.22C106.586 34.22 107.282 34.34 107.954 34.58C108.626 34.82 109.22 35.198 109.736 35.714C110.252 36.218 110.666 36.86 110.978 37.64C111.29 38.42 111.446 39.35 111.446 40.43V40.79C111.446 41.918 111.29 42.884 110.978 43.688C110.666 44.492 110.252 45.152 109.736 45.668C109.22 46.184 108.626 46.568 107.954 46.82C107.282 47.06 106.586 47.18 105.866 47.18ZM105.866 45.668C106.358 45.668 106.832 45.578 107.288 45.398C107.744 45.218 108.146 44.936 108.494 44.552C108.842 44.156 109.118 43.652 109.322 43.04C109.538 42.416 109.646 41.666 109.646 40.79V40.43C109.646 39.602 109.538 38.894 109.322 38.306C109.118 37.706 108.842 37.22 108.494 36.848C108.146 36.464 107.744 36.182 107.288 36.002C106.832 35.822 106.358 35.732 105.866 35.732C105.374 35.732 104.9 35.822 104.444 36.002C103.988 36.182 103.586 36.464 103.238 36.848C102.89 37.22 102.608 37.706 102.392 38.306C102.188 38.894 102.086 39.602 102.086 40.43V40.79C102.086 41.666 102.188 42.416 102.392 43.04C102.608 43.652 102.89 44.156 103.238 44.552C103.586 44.936 103.988 45.218 104.444 45.398C104.9 45.578 105.374 45.668 105.866 45.668ZM123.24 47.18C122.484 47.18 121.8 47.072 121.188 46.856C120.588 46.64 120.072 46.31 119.64 45.866C119.208 45.422 118.872 44.864 118.632 44.192C118.404 43.508 118.29 42.704 118.29 41.78V34.4H119.982V41.78C119.982 43.148 120.27 44.138 120.846 44.75C121.422 45.362 122.22 45.668 123.24 45.668C124.26 45.668 125.058 45.362 125.634 44.75C126.21 44.138 126.498 43.148 126.498 41.78V34.4H128.19V41.78C128.19 42.704 128.07 43.508 127.83 44.192C127.602 44.864 127.272 45.422 126.84 45.866C126.408 46.31 125.886 46.64 125.274 46.856C124.674 47.072 123.996 47.18 123.24 47.18ZM135.758 34.4H140.078C140.906 34.4 141.626 34.496 142.238 34.688C142.85 34.88 143.354 35.15 143.75 35.498C144.158 35.834 144.458 36.242 144.65 36.722C144.842 37.19 144.938 37.706 144.938 38.27C144.938 38.834 144.842 39.356 144.65 39.836C144.458 40.304 144.158 40.712 143.75 41.06C143.354 41.396 142.85 41.66 142.238 41.852C141.626 42.044 140.906 42.14 140.078 42.14H137.45V47H135.758V34.4ZM139.988 40.664C140.588 40.664 141.092 40.61 141.5 40.502C141.92 40.382 142.256 40.22 142.508 40.016C142.772 39.812 142.958 39.56 143.066 39.26C143.186 38.96 143.246 38.63 143.246 38.27C143.246 37.91 143.186 37.58 143.066 37.28C142.958 36.98 142.772 36.728 142.508 36.524C142.256 36.32 141.92 36.164 141.5 36.056C141.092 35.936 140.588 35.876 139.988 35.876H137.45V40.664H139.988Z" fill="#181A36"/>
</svg>

<svg width="188" height="54" fill="none" xmlns="http://www.w3.org/2000/svg"><path d="M41.337 7.204v33.714l-.404.164-17.393 7.102L6.067 41l-.404-.163V7.204L0 9.49v33.388c0 1.06.647 1.959 1.537 2.367l21.033 8.571a2.448 2.448 0 001.86 0l21.033-8.571c.97-.408 1.537-1.306 1.537-2.367V9.57l-5.663-2.367z" fill="#8095F2"/><path d="M41.337 7.204v33.714l-.404.164-17.393 7.102L6.067 41l-.404-.163V7.204L0 9.49v33.388c0 1.06.647 1.959 1.537 2.367l21.033 8.571a2.448 2.448 0 001.86 0l21.033-8.571c.97-.408 1.537-1.306 1.537-2.367V9.57l-5.663-2.367z" fill="#8095F2"/><path d="M37.718 25.735v11.102c0 .98-.567 1.959-1.537 2.449l-11.892 4.816a2.448 2.448 0 01-1.86 0l-11.892-4.898C9.647 38.796 9 37.898 9 36.837V7.53c0-1.062.566-1.96 1.537-2.368L22.429.183a2.448 2.448 0 011.86 0l11.892 4.899c.89.408 1.537 1.306 1.537 2.367v10.449l-5.663-1.96V9.654l-8.737-3.592-8.736 3.592.08 22.694v2.367l8.737 3.592 8.737-3.592v-6.53c0-.59-.277-1.184-1.277-1.684L24.5 23l2.5-4.5 9.1 5.03c.97.327 1.618 1.225 1.618 2.205z" fill="#8095F2"/><path d="M37.718 25.735v11.102c0 .98-.567 1.959-1.537 2.449l-11.892 4.816a2.448 2.448 0 01-1.86 0l-11.892-4.898C9.647 38.796 9 37.898 9 36.837V7.53c0-1.062.566-1.96 1.537-2.368L22.429.183a2.448 2.448 0 011.86 0l11.892 4.899c.89.408 1.537 1.306 1.537 2.367v10.449l-5.663-1.96V9.654l-8.737-3.592-8.736 3.592.08 22.694v2.367l8.737 3.592 8.737-3.592v-6.53c0-.59-.277-1.184-1.277-1.684L24.5 23l2.5-4.5 9.1 5.03c.97.327 1.618 1.225 1.618 2.205z" fill="#8095F2"/><path d="M74.03 25.286c-1.027 0-1.958-.132-2.794-.396-.821-.279-1.525-.682-2.112-1.21-.572-.543-1.02-1.217-1.342-2.024-.308-.807-.462-1.745-.462-2.816V9.6h3.96v8.778c0 1.188.205 2.09.616 2.706.41.601 1.122.902 2.134.902 1.041 0 1.76-.3 2.156-.902.396-.616.594-1.51.594-2.684V9.6h3.96v9.24c0 1.07-.154 2.01-.462 2.816-.308.807-.755 1.481-1.342 2.024-.572.528-1.276.931-2.112 1.21-.821.264-1.753.396-2.794.396zM85.81 9.6h6.71c1.922 0 3.374.462 4.356 1.386.983.924 1.474 2.178 1.474 3.762 0 1.1-.264 2.046-.792 2.838-.513.777-1.29 1.35-2.332 1.716L98.79 25h-4.4l-2.992-5.28H89.77V25h-3.96V9.6zm5.83 7.04c1.056 0 1.775-.154 2.156-.462.396-.323.594-.8.594-1.43 0-.63-.198-1.1-.594-1.408-.381-.323-1.1-.484-2.156-.484h-1.87v3.784h1.87zm18.597 8.646a9.334 9.334 0 01-2.882-.44 6.44 6.44 0 01-2.398-1.386c-.674-.645-1.21-1.46-1.606-2.442-.396-.997-.594-2.2-.594-3.608v-.44c0-1.35.198-2.508.594-3.476.396-.968.932-1.76 1.606-2.376a6.598 6.598 0 012.398-1.364c.91-.293 1.87-.44 2.882-.44s1.973.147 2.882.44a6.37 6.37 0 012.376 1.364c.69.616 1.232 1.408 1.628 2.376.396.968.594 2.127.594 3.476v.44c0 1.408-.198 2.61-.594 3.608-.396.983-.938 1.797-1.628 2.442a6.223 6.223 0 01-2.376 1.386 9.33 9.33 0 01-2.882.44zm0-3.3c.44 0 .866-.066 1.276-.198.411-.147.77-.389 1.078-.726.308-.352.558-.821.748-1.408.191-.587.286-1.335.286-2.244v-.44c0-.85-.095-1.555-.286-2.112-.19-.572-.44-1.02-.748-1.342a2.464 2.464 0 00-1.078-.704 4.141 4.141 0 00-1.276-.198c-.44 0-.865.066-1.276.198a2.47 2.47 0 00-1.078.704c-.308.323-.557.77-.748 1.342-.19.557-.286 1.261-.286 2.112v.44c0 .91.096 1.657.286 2.244.191.587.44 1.056.748 1.408.308.337.668.58 1.078.726.411.132.836.198 1.276.198zm12.2-12.386h3.96v12.144h6.6V25h-10.56V9.6zm21.462 15.686a9.33 9.33 0 01-2.882-.44 6.433 6.433 0 01-2.398-1.386c-.675-.645-1.21-1.46-1.606-2.442-.396-.997-.594-2.2-.594-3.608v-.44c0-1.35.198-2.508.594-3.476.396-.968.931-1.76 1.606-2.376a6.59 6.59 0 012.398-1.364 9.329 9.329 0 012.882-.44c1.012 0 1.973.147 2.882.44a6.386 6.386 0 012.376 1.364c.689.616 1.232 1.408 1.628 2.376.396.968.594 2.127.594 3.476v.44c0 1.408-.198 2.61-.594 3.608-.396.983-.939 1.797-1.628 2.442a6.238 6.238 0 01-2.376 1.386 9.33 9.33 0 01-2.882.44zm0-3.3c.44 0 .865-.066 1.276-.198.411-.147.77-.389 1.078-.726.308-.352.557-.821.748-1.408.191-.587.286-1.335.286-2.244v-.44c0-.85-.095-1.555-.286-2.112-.191-.572-.44-1.02-.748-1.342a2.464 2.464 0 00-1.078-.704 4.146 4.146 0 00-1.276-.198c-.44 0-.865.066-1.276.198-.411.132-.77.367-1.078.704-.308.323-.557.77-.748 1.342-.191.557-.286 1.261-.286 2.112v.44c0 .91.095 1.657.286 2.244.191.587.44 1.056.748 1.408.308.337.667.58 1.078.726.411.132.836.198 1.276.198zm19.02 3.3c-1.056 0-2.032-.147-2.926-.44a6.058 6.058 0 01-2.332-1.386c-.66-.645-1.181-1.467-1.562-2.464-.367-.997-.55-2.193-.55-3.586v-.44c0-1.335.19-2.479.572-3.432.381-.968.902-1.76 1.562-2.376a6.085 6.085 0 012.31-1.386 8.46 8.46 0 012.816-.462c.88 0 1.701.103 2.464.308a5.894 5.894 0 012.024.968c.586.425 1.07.975 1.452 1.65.396.675.652 1.481.77 2.42h-4.092c-.103-.41-.25-.748-.44-1.012a2.312 2.312 0 00-.638-.616 2.13 2.13 0 00-.748-.33 3.639 3.639 0 00-.792-.088 3.7 3.7 0 00-1.298.22 2.374 2.374 0 00-.99.726c-.279.337-.499.785-.66 1.342-.147.557-.22 1.247-.22 2.068v.44c0 .821.08 1.525.242 2.112.161.572.381 1.041.66 1.408.293.367.638.638 1.034.814.41.161.858.242 1.342.242.396 0 .784-.051 1.166-.154.396-.103.74-.264 1.034-.484.308-.22.557-.491.748-.814.19-.337.293-.74.308-1.21h-2.816v-2.508h6.49v1.034c0 1.32-.176 2.45-.528 3.388-.338.939-.814 1.709-1.43 2.31a5.6 5.6 0 01-2.2 1.32c-.836.279-1.76.418-2.772.418zm15.528-6.05l-5.72-9.636h4.576l3.212 5.72 3.036-5.72h4.136l-5.28 9.636V25h-3.96v-5.764zM72.57 47.18c-.744 0-1.452-.12-2.124-.36a4.82 4.82 0 01-1.746-1.152c-.492-.528-.888-1.194-1.188-1.998-.288-.804-.432-1.764-.432-2.88v-.36c0-1.08.144-2.01.432-2.79.3-.78.696-1.422 1.188-1.926a4.728 4.728 0 011.746-1.116 5.999 5.999 0 012.124-.378c.612 0 1.182.09 1.71.27a4.58 4.58 0 011.422.738c.42.324.774.72 1.062 1.188.3.468.522.996.666 1.584h-1.8c-.264-.792-.678-1.368-1.242-1.728a3.318 3.318 0 00-1.818-.54c-.492 0-.96.084-1.404.252-.444.168-.84.438-1.188.81-.336.36-.606.84-.81 1.44-.192.6-.288 1.332-.288 2.196v.36c0 .912.108 1.68.324 2.304.216.612.498 1.11.846 1.494.36.384.756.66 1.188.828a3.74 3.74 0 001.332.252c.996 0 1.806-.282 2.43-.846.624-.564.984-1.488 1.08-2.772h-3.15v-1.44h4.77v.54c0 .972-.12 1.836-.36 2.592-.24.744-.582 1.374-1.026 1.89a4.192 4.192 0 01-1.602 1.152c-.636.264-1.35.396-2.142.396zM84.631 34.4h4.41c.792 0 1.482.096 2.07.288.6.192 1.098.456 1.494.792.396.336.696.738.9 1.206.204.456.306.954.306 1.494 0 .84-.252 1.578-.756 2.214-.492.624-1.224 1.062-2.196 1.314L94.171 47h-1.998l-3.006-5.076h-2.844V47h-1.692V34.4zm4.23 6.084c1.164 0 1.998-.21 2.502-.63.504-.432.756-.99.756-1.674 0-.684-.252-1.236-.756-1.656-.504-.432-1.338-.648-2.502-.648h-2.538v4.608h2.538zm17.005 6.696c-.72 0-1.416-.12-2.088-.36a4.956 4.956 0 01-1.782-1.152c-.516-.516-.93-1.176-1.242-1.98-.312-.804-.468-1.77-.468-2.898v-.36c0-1.08.156-2.01.468-2.79.312-.78.726-1.422 1.242-1.926a4.756 4.756 0 011.782-1.134 6.162 6.162 0 012.088-.36c.72 0 1.416.12 2.088.36.672.24 1.266.618 1.782 1.134.516.504.93 1.146 1.242 1.926.312.78.468 1.71.468 2.79v.36c0 1.128-.156 2.094-.468 2.898-.312.804-.726 1.464-1.242 1.98s-1.11.9-1.782 1.152c-.672.24-1.368.36-2.088.36zm0-1.512c.492 0 .966-.09 1.422-.27a3.2 3.2 0 001.206-.846c.348-.396.624-.9.828-1.512.216-.624.324-1.374.324-2.25v-.36c0-.828-.108-1.536-.324-2.124-.204-.6-.48-1.086-.828-1.458a3.2 3.2 0 00-1.206-.846c-.456-.18-.93-.27-1.422-.27-.492 0-.966.09-1.422.27a3.2 3.2 0 00-1.206.846c-.348.372-.63.858-.846 1.458-.204.588-.306 1.296-.306 2.124v.36c0 .876.102 1.626.306 2.25.216.612.498 1.116.846 1.512a3.2 3.2 0 001.206.846c.456.18.93.27 1.422.27zm17.374 1.512c-.756 0-1.44-.108-2.052-.324a4.035 4.035 0 01-1.548-.99c-.432-.444-.768-1.002-1.008-1.674-.228-.684-.342-1.488-.342-2.412V34.4h1.692v7.38c0 1.368.288 2.358.864 2.97.576.612 1.374.918 2.394.918s1.818-.306 2.394-.918c.576-.612.864-1.602.864-2.97V34.4h1.692v7.38c0 .924-.12 1.728-.36 2.412-.228.672-.558 1.23-.99 1.674a4.014 4.014 0 01-1.566.99c-.6.216-1.278.324-2.034.324zm12.518-12.78h4.32c.828 0 1.548.096 2.16.288.612.192 1.116.462 1.512.81.408.336.708.744.9 1.224.192.468.288.984.288 1.548 0 .564-.096 1.086-.288 1.566a3.184 3.184 0 01-.9 1.224c-.396.336-.9.6-1.512.792-.612.192-1.332.288-2.16.288h-2.628V47h-1.692V34.4zm4.23 6.264c.6 0 1.104-.054 1.512-.162.42-.12.756-.282 1.008-.486.264-.204.45-.456.558-.756.12-.3.18-.63.18-.99s-.06-.69-.18-.99a1.646 1.646 0 00-.558-.756c-.252-.204-.588-.36-1.008-.468-.408-.12-.912-.18-1.512-.18h-2.538v4.788h2.538z" fill="#181A36"/></svg>
